X:1
T:Essence of Old Virginny [2]
T:Essence of Old Virginny [2]
T:James Buckley
C:James Buckley
L:1/8
M:2/4
K:E
V:1 treble 
V:1
 B, | EG B>G | (3B/G/B/ (3e/B/G/ F>F | F/>G/A/>B/ cA/>B/ | (3c/A/c/ (3e/c/e/ B>B |: %5
 B/>c/^d/>e/ f>B | f/>B/f/>B/ e (3E/F/G/ | A/>B/G/>B/ F/>B/^A/>B/ | d/>B/A/>F/ E z :| B | %10
 (3e/e/e/ (3e/e/e/ e>^d | c/>^B/c/>^d/ c/<B/ z/ B/ | (3c/c/c/ (3c/c/c/ cc | E/>F/G/>F/ E/>D/E/>C/ | %14
 B,C E>F | G/>F/E/>F/ G/<B/ z/ B/ | c/>B/c/>^d/ e/>d/e/>c/ | (3B/c/B/ (3A/G/F/ E z || %18

